src/components/icon/assets/logo_redis.svg

<?xml version="1.0" encoding="UTF-8"?>
<svg width="32px" height="32px" viewBox="0 0 32 32" version="1.1" xmlns="http://www.w3.org/2000/svg" xmlns:xlink="http://www.w3.org/1999/xlink">
    <!-- Generator: Sketch 48.2 (47327) - http://www.bohemiancoding.com/sketch -->
    <title>redis</title>
    <desc>Created with Sketch.</desc>
    <defs></defs>
    <g id="Page-1" stroke="none" stroke-width="1" fill="none" fill-rule="evenodd">
        <g id="redis" fill-rule="nonzero">
            <g transform="translate(0.000000, 3.000000)">
                <path d="M30.5942586,20.7913038 C28.9053284,21.6663997 20.155933,25.2422353 18.2932353,26.2073928 C16.4305377,27.1729202 15.395747,27.1634887 13.9243051,26.4642627 C12.4528633,25.7650366 3.14197953,22.0266462 1.46477023,21.2297764 C0.626444651,20.8314339 0.185700465,20.4954134 0.185700465,20.177886 L0.185700465,16.9979887 C0.185700465,16.9979887 12.3071888,14.3749202 14.2642121,13.6771736 C16.2210493,12.9792421 16.899933,12.9540914 18.5652353,13.5604818 C20.2307237,14.1668723 30.1883051,15.9527558 31.8342586,16.5519339 C31.8342586,16.5519339 31.8335144,19.3919271 31.8335144,19.6867079 C31.8337005,20.0010914 31.4539795,20.3459887 30.5942586,20.7913038 Z" id="Shape" fill="#A41E11"></path>
                <path d="M30.5942586,17.6104818 C28.9053284,18.4852079 20.155933,22.0614134 18.2932353,23.0265709 C16.4305377,23.9920983 15.395747,23.9826668 13.9243051,23.2834408 C12.4526772,22.5845846 3.14197953,18.8454545 1.46477023,18.0489545 C-0.21243907,17.2520846 -0.24760186,16.7035777 1.40002605,16.0624202 C3.04746791,15.4208928 12.3071888,11.8097353 14.2643981,11.1118038 C16.2212353,10.4142421 16.9001191,10.3887216 18.5654214,10.9952969 C20.2309098,11.6016873 28.928026,15.0427079 30.5737935,15.641886 C32.219933,16.2416188 32.2831888,16.735386 30.5942586,17.6104818 Z" id="Shape" fill="#D82C20"></path>
                <path d="M30.5942586,15.6058243 C28.9053284,16.4809202 20.155933,20.0567558 18.2932353,21.0222832 C16.4305377,21.9874408 15.395747,21.9780092 13.9243051,21.2787832 C12.4526772,20.5799271 3.14197953,16.8411668 1.46477023,16.0442969 C0.626444651,15.6459545 0.185700465,15.3103038 0.185700465,14.9927764 L0.185700465,11.8125092 C0.185700465,11.8125092 12.3071888,9.18962568 14.2642121,8.49169418 C16.2210493,7.7939476 16.899933,7.76861199 18.5652353,8.3750024 C20.2307237,8.98139281 30.1883051,10.7669065 31.8342586,11.3662695 C31.8342586,11.3662695 31.8335144,14.2062627 31.8335144,14.5014134 C31.8337005,14.815612 31.4539795,15.1605092 30.5942586,15.6058243 Z" id="Shape" fill="#A41E11"></path>
                <path d="M30.5942586,12.4250024 C28.9053284,13.3000983 20.155933,16.8759339 18.2932353,17.8414613 C16.4305377,18.8066188 15.395747,18.7971873 13.9243051,18.0979613 C12.4526772,17.3991051 3.14197953,13.6601599 1.46477023,12.863475 C-0.21243907,12.0667901 -0.24760186,11.5182832 1.40002605,10.8767558 C3.04746791,10.2355983 12.3071888,6.62425582 14.2643981,5.92650925 C16.2212353,5.22876267 16.9001191,5.20342705 18.5654214,5.80981747 C20.2309098,6.41620788 28.928026,9.85704349 30.5737935,10.4564065 C32.219933,11.0559545 32.2831888,11.5499065 30.5942586,12.4250024 Z" id="Shape" fill="#D82C20"></path>
                <path d="M30.5942586,10.2280161 C28.9053284,11.103112 20.155933,14.6791325 18.2932353,15.6446599 C16.4305377,16.6098175 15.395747,16.600386 13.9243051,15.9011599 C12.4526772,15.2023038 3.14197953,11.4633586 1.46477023,10.6666736 C0.626444651,10.2683312 0.185700465,9.93249555 0.185700465,9.61515308 L0.185700465,6.43488596 C0.185700465,6.43488596 12.3071888,3.8120024 14.2642121,3.11425582 C16.2210493,2.41632432 16.899933,2.39117363 18.5652353,2.99756404 C20.2307237,3.60395445 30.1883051,5.38946815 31.8342586,5.98883116 C31.8342586,5.98883116 31.8335144,8.82882432 31.8335144,9.12379007 C31.8337005,9.43780377 31.4539795,9.78270103 30.5942586,10.2280161 Z" id="Shape" fill="#A41E11"></path>
                <path d="M30.5942586,7.04719418 C28.9053284,7.92229007 20.155933,11.4983106 18.2932353,12.4636531 C16.4305377,13.4288106 15.395747,13.4193791 13.9243051,12.720338 C12.4528633,12.0212969 3.14197953,8.28253664 1.46477023,7.48585171 C-0.21243907,6.68916678 -0.24760186,6.140475 1.40002605,5.49913253 C3.04746791,4.85779007 12.3071888,1.24681747 14.2643981,0.548885959 C16.2212353,-0.149045548 16.9001191,-0.174196233 18.5654214,0.43237911 C20.2309098,1.03876952 28.928026,4.47960514 30.5737935,5.07896815 C32.219933,5.67814623 32.2831888,6.17228322 30.5942586,7.04719418 Z" id="Shape" fill="#D82C20"></path>
                <polygon id="Shape" fill="#FFFFFF" points="20.1570493 3.98472842 17.4147237 4.26767363 16.8007702 5.73602979 15.8091423 4.09753664 12.6426307 3.81459144 15.0054214 2.96760514 14.2965842 1.66753664 16.5086772 2.52746815 18.5942586 1.84876952 18.0305377 3.19322158"></polygon>
                <polygon id="Shape" fill="#FFFFFF" points="16.6370493 11.1082901 11.5189098 8.99822158 18.8528633 7.87938596"></polygon>
                <ellipse id="Oval" fill="#FFFFFF" cx="9.54123535" cy="6.31116678" rx="3.91981395" ry="1.51033562"></ellipse>
                <polygon id="Shape" fill="#7A0C00" points="23.3979795 4.38602979 27.7384447 6.09109829 23.4017005 7.79431747"></polygon>
                <polygon id="Shape" fill="#AD2115" points="18.5961191 6.27418048 23.3979795 4.38602979 23.4017005 7.79431747 22.9310028 7.97739966"></polygon>
            </g>
        </g>
    </g>
</svg>

<svg width="32" height="32" xmlns="http://www.w3.org/2000/svg"><g transform="translate(0 3)" fill-rule="nonzero" fill="none"><path d="M30.594 20.791c-1.689.875-10.438 4.451-12.3 5.416-1.863.966-2.898.956-4.37.257-1.471-.699-10.782-4.437-12.46-5.234-.838-.399-1.278-.735-1.278-1.052v-3.18s12.121-2.623 14.078-3.32c1.957-.699 2.636-.724 4.301-.118 1.666.607 11.623 2.393 13.27 2.992l-.001 3.135c0 .314-.38.659-1.24 1.104z" fill="#A41E11"/><path d="M30.594 17.61c-1.689.875-10.438 4.451-12.3 5.417-1.863.965-2.898.956-4.37.256-1.471-.698-10.782-4.438-12.46-5.234-1.676-.797-1.712-1.345-.064-1.987 1.647-.641 10.907-4.252 12.864-4.95 1.957-.698 2.636-.723 4.301-.117 1.666.607 10.363 4.048 12.009 4.647 1.646.6 1.71 1.093.02 1.968z" fill="#D82C20"/><path d="M30.594 15.606c-1.689.875-10.438 4.45-12.3 5.416-1.863.965-2.898.956-4.37.257-1.471-.7-10.782-4.438-12.46-5.235-.838-.398-1.278-.734-1.278-1.051v-3.18S12.307 9.19 14.264 8.492c1.957-.698 2.636-.723 4.301-.117 1.666.606 11.623 2.392 13.27 2.991l-.001 3.135c0 .315-.38.66-1.24 1.105z" fill="#A41E11"/><path d="M30.594 12.425c-1.689.875-10.438 4.45-12.3 5.416-1.863.966-2.898.956-4.37.257-1.471-.699-10.782-4.438-12.46-5.235-1.676-.796-1.712-1.345-.064-1.986 1.647-.641 10.907-4.253 12.864-4.95 1.957-.698 2.636-.724 4.301-.117 1.666.606 10.363 4.047 12.009 4.646 1.646.6 1.71 1.094.02 1.969z" fill="#D82C20"/><path d="M30.594 10.228c-1.689.875-10.438 4.451-12.3 5.417-1.863.965-2.898.955-4.37.256-1.471-.699-10.782-4.438-12.46-5.234C.627 10.268.187 9.932.187 9.615v-3.18s12.121-2.623 14.078-3.32c1.957-.699 2.636-.724 4.301-.117 1.666.606 11.623 2.391 13.27 2.99l-.001 3.136c0 .314-.38.659-1.24 1.104z" fill="#A41E11"/><path d="M30.594 7.047c-1.689.875-10.438 4.451-12.3 5.417-1.863.965-2.898.955-4.37.256-1.471-.699-10.782-4.437-12.46-5.234C-.211 6.689-.247 6.14 1.4 5.499 3.047 4.858 12.307 1.247 14.264.55 16.221-.15 16.9-.174 18.565.432c1.666.607 10.363 4.048 12.009 4.647 1.646.6 1.71 1.093.02 1.968z" fill="#D82C20"/><path fill="#FFF" d="M20.157 3.985l-2.742.283-.614 1.468-.992-1.638-3.166-.283 2.362-.847-.708-1.3 2.212.86 2.085-.68-.563 1.345zM16.637 11.108l-5.118-2.11 7.334-1.119z"/><ellipse fill="#FFF" cx="9.541" cy="6.311" rx="3.92" ry="1.51"/><path fill="#7A0C00" d="M23.398 4.386l4.34 1.705-4.336 1.703z"/><path fill="#AD2115" d="M18.596 6.274l4.802-1.888.004 3.408-.471.183z"/></g></svg>
